pk/pivot-table.svg

<svg viewBox="0 0 48 48" fill="none" xmlns="http://www.w3.org/2000/svg" height="1em" width="1em">
  <path d="M42.0004 4H6.00005C4.89546 4 4.00002 4.89546 4.00005 6.00005L4.00104 42.0001C4.00107 43.1046 4.8965 44 6.00104 44H42.0004C43.105 44 44.0004 43.1046 44.0004 42V6C44.0004 4.89543 43.105 4 42.0004 4Z" fill="#2F88FF" stroke="black" stroke-width="4"/>
  <path d="M20.0088 34.0083H33.5005V20.0083" stroke="white" stroke-width="4" stroke-linecap="round" stroke-linejoin="round"/>
  <path d="M24.5 38.5L23 37L20 34L23 31L24.5 29.5" stroke="white" stroke-width="4" stroke-linecap="round" stroke-linejoin="round"/>
  <path d="M29 24.5L30.5 23L33.5 20L36.5 23L38 24.5" stroke="white" stroke-width="4" stroke-linecap="round" stroke-linejoin="round"/>
  <path d="M14 4L14 44" stroke="white" stroke-width="4" stroke-linecap="round"/>
  <path d="M4 14.0378L44 14" stroke="white" stroke-width="4" stroke-linecap="round"/>
  <path d="M8 4H28" stroke="black" stroke-width="4" stroke-linecap="round" stroke-linejoin="round"/>
  <path d="M8 44H28" stroke="black" stroke-width="4" stroke-linecap="round" stroke-linejoin="round"/>
  <path d="M44 8V18" stroke="black" stroke-width="4" stroke-linecap="round"/>
  <path d="M4 8L4 18" stroke="black" stroke-width="4" stroke-linecap="round"/>
</svg>

<svg viewBox="0 0 48 48" fill="none" xmlns="http://www.w3.org/2000/svg" height="1em" width="1em">
  <path d="M42 4H6a2 2 0 0 0-2 2l.001 36a2 2 0 0 0 2 2h36a2 2 0 0 0 2-2V6a2 2 0 0 0-2-2Z" fill="#2F88FF" stroke="#000" stroke-width="4"/>
  <path d="M20.009 34.008H33.5v-14" stroke="#fff" stroke-width="4" stroke-linecap="round" stroke-linejoin="round"/>
  <path d="M24.5 38.5 23 37l-3-3 3-3 1.5-1.5m4.5-5 1.5-1.5 3-3 3 3 1.5 1.5" stroke="#fff" stroke-width="4" stroke-linecap="round" stroke-linejoin="round"/>
  <path d="M14 4v40M4 14.038 44 14" stroke="#fff" stroke-width="4" stroke-linecap="round"/>
  <path d="M8 4h20M8 44h20" stroke="#000" stroke-width="4" stroke-linecap="round" stroke-linejoin="round"/>
  <path d="M44 8v10M4 8v10" stroke="#000" stroke-width="4" stroke-linecap="round"/>
</svg>
